icons/Buildings/store-2-line.svg

<svg viewBox="0 0 24 24" xmlns="http://www.w3.org/2000/svg"><path d="M21 13.2422V20H22V22H2V20H3V13.2422C1.79401 12.435 1 11.0602 1 9.5C1 8.67286 1.22443 7.87621 1.63322 7.19746L4.3453 2.5C4.52393 2.1906 4.85406 2 5.21132 2H18.7887C19.1459 2 19.4761 2.1906 19.6547 2.5L22.3575 7.18172C22.7756 7.87621 23 8.67286 23 9.5C23 11.0602 22.206 12.435 21 13.2422ZM19 13.9725C18.8358 13.9907 18.669 14 18.5 14C17.2409 14 16.0789 13.478 15.25 12.6132C14.4211 13.478 13.2591 14 12 14C10.7409 14 9.5789 13.478 8.75 12.6132C7.9211 13.478 6.75911 14 5.5 14C5.331 14 5.16417 13.9907 5 13.9725V20H19V13.9725ZM5.78865 4L3.35598 8.21321C3.12409 8.59843 3 9.0389 3 9.5C3 10.8807 4.11929 12 5.5 12C6.53096 12 7.44467 11.3703 7.82179 10.4295C8.1574 9.59223 9.3426 9.59223 9.67821 10.4295C10.0553 11.3703 10.969 12 12 12C13.031 12 13.9447 11.3703 14.3218 10.4295C14.6574 9.59223 15.8426 9.59223 16.1782 10.4295C16.5553 11.3703 17.469 12 18.5 12C19.8807 12 21 10.8807 21 9.5C21 9.0389 20.8759 8.59843 20.6347 8.19746L18.2113 4H5.78865Z"/></svg>

<svg xmlns="http://www.w3.org/2000/svg" viewBox="0 0 24 24">
    <g>
        <path fill="none" d="M0 0h24v24H0z"/>
        <path d="M21 13.242V20h1v2H2v-2h1v-6.758A4.496 4.496 0 0 1 1 9.5c0-.827.224-1.624.633-2.303L4.345 2.5a1 1 0 0 1 .866-.5H18.79a1 1 0 0 1 .866.5l2.702 4.682A4.496 4.496 0 0 1 21 13.242zm-2 .73a4.496 4.496 0 0 1-3.75-1.36A4.496 4.496 0 0 1 12 14.001a4.496 4.496 0 0 1-3.25-1.387A4.496 4.496 0 0 1 5 13.973V20h14v-6.027zM5.789 4L3.356 8.213a2.5 2.5 0 0 0 4.466 2.216c.335-.837 1.52-.837 1.856 0a2.5 2.5 0 0 0 4.644 0c.335-.837 1.52-.837 1.856 0a2.5 2.5 0 1 0 4.457-2.232L18.21 4H5.79z"/>
    </g>
</svg>
